X:203
T: Pausteen Feaun or The Fair Child
T: Paist\'in Fionn (An)
N: O'Farrell's Pocket Companion v.3 (Sky ed. p.103)
N: "Irish"
M: 6/8
R: jig
L: 1/8
Q: 320
K: Em
B| e>fe d>ef| g>ag f2 f/a/| gee dBc| d2B B2 c/d/|
e>fe def|g>ag f2e| dBG AGF| E3 E2 :|
F| GAB/c/ dBB| cAA dBB| GAB/c/ dBA| Bed efg|
GAB/c/ dBB| e2f Hg2 f/e/| dBG AGF| E3 E2 :|
